X: 4
T: Merle's Tune
R: reel
M: 4/4
L: 1/8
K: Bdor
|:BFBc dBFE|DFGB ABce|fBBc defg|aefd cAec|
BFBc dBfe|defg aece|dAdf aece|aecf dB ~B2:|
|:Bcdf bBgB|fBfb fBBA|Bcde aAfA|eAea eAcA|
BFBc dBFB|defg aece|dAfd cAec|aecf dB~B2:|

composer: Lizz Carrol
